!!!!SEGMENT: pl-kk--kk-i-10--001-004_anonim--aliud-de-passione-domini-deo-gratias.krn
!!!cenid: 16xx:1184
!!!COM: Anonim
!!!COM-rismid: pe30004985
!!!CDT:
!!!CNT:
!!!OPR: Aliud de Passione Domini
!!!OTL: Deo gratias
!!!OMV: 004
!!!PDT:
!!!AGN: Sacred; Mass
!!!SMS-siglum: PL-Kk
!!!SMS-shelfmark: Kk.I.10
!!!SMS-shelfwork: 001-004 M
!!!SMS-variant:
!!!SMS-altvar:
!!!NIFC-rismid: 1001151829
!!!URL-scan: http://repozytorium.nifc.pl/skany/pl-kk-nut--i-10
!!!ONB-nifc: UWAGA: części Mszy: 1. Kyrie, 2. Sanctus 3. Agnus Dei, 4. Deo gratias. A (skan 0004-0006), T (skan 0055-0057), B (skan 0103-0105).
**kern	**text	**kern	**text	**kern	**text
*part3	*part3	*part2	*part2	*part1	*part1
*staff3	*staff3	*staff2	*staff2	*staff1	*staff1
*Ibass	*	*Itenor	*	*Ialto	*
*I"Bassus.	*	*I"Tenor	*	*I"Altus.	*
*I'B	*	*I'T	*	*I'A	*
*clefF4	*	*clefC4	*	*clefC4	*
*k[b-]	*	*k[b-]	*	*k[b-]	*
*F:	*	*F:	*	*F:	*
*M2/1	*	*M2/1	*	*M2/1	*
*met(C|)	*	*met(C|)	*	*met(C|)	*
=1-	=1-	=1-	=1-	=1-	=1-
!LO:TX:b:t=Temp(ore) Paſsi\nonis.	!	!LO:TX:a:t=Tempore Paſsionis.	!	!	!
*	*	*lig	*	*	*
1F	De-	1F	De-	1A	De-
1C	.	1G	.	1c	-o
*	*	*Xlig	*	*	*
=2-	=2-	=2-	=2-	=2-	=2-
*	*	*lig	*	*	*
2FF/	-o	1A	.	4c\	gra-
.	.	.	.	4B-\	.
1F	gra-	.	.	4A/	.
.	.	.	.	8G/L	.
.	.	.	.	8F/J	.
.	.	1G	.	2.C/	.
2E\	.	.	.	.	.
.	.	.	.	4C/	-ti-
*	*	*Xlig	*	*	*
=3-	=3-	=3-	=3-	=3-	=3-
*	*	*lig	*	*	*
4F\	.	1A	.	2F/	-as
4E\	.	.	.	.	.
4D/	.	.	.	(4F/	De-
!LO:SIC:v:t=custos BB	!	!	!	!	!
4C/	.	.	.	4E/	.
!LO:LB:g=original	!	!	!	!	!
4BB-/	.	1B-	.	2D/)	-o
4AA/	.	.	.	.	.
2GG/	.	.	.	2.G/	gra-
*	*	*Xlig	*	*	*
=4-	=4-	=4-	=4-	=4-	=4-
*	*	*lig	*	*	*
2.AA/	.	1A	.	.	.
.	.	.	.	4F/	.
!	!	!	!	!LO:SIC:v:t=custos E	!
.	.	.	.	1F	.
4BB-/	.	.	.	.	.
1C	-ti-	1G	.	.	.
!	!	!	!	!LO:LB:g=original	!
.	.	.	.	2E/	-ti-
*	*	*Xlig	*	*	*
=5-	=5-	=5-	=5-	=5-	=5-
1FF	-as	1F	-o	2F/	-as
*	*	*	*	*	*ij
.	.	.	.	2A/	De-
*	*	*lig	*	*	*
2r	.	1A	gra-	1c	.
2FF/	De-	.	.	.	.
=6-	=6-	=6-	=6-	=6-	=6-
1C	-o	1G	.	2.c\	-o
.	.	.	.	4c\	gra-
*	*	*Xlig	*	*	*
*	*	*lig	*	*	*
2D/	gra-	1F	.	2A/	.
2BB-/	.	.	.	1B-\	-ti-
=7-	=7-	=7-	=7-	=7-	=7-
2GG/	.	1E	.	.	.
2AA/	-ti-	.	.	2A/	-as
*	*	*Xlig	*	*	*Xij
*	*	*lig	*	*	*ij
1D	-as	1F	.	1.A	De-
=8-	=8-	=8-	=8-	=8-	=8-
*	*ij	*	*	*	*
!	!	!LO:SIC:v:t=custos E	!	!	!
2D/	De-	1D	.	.	.
!LO:SIC:v:t=custos C	!	!	!	!	!
2BB-/	-o	.	.	2B-\	.
*	*	*Xlig	*	*	*
*	*	*lig	*	*	*
!LO:LB:g=original	!	!LO:LB:g=original	!	!	!
2.C/	gra-	1E	.	1G	-o
4C/	-ti-	.	.	.	.
=9-	=9-	=9-	=9-	=9-	=9-
1FF	-as	1F	.	1A	gra-
*	*Xij	*Xlig	*	*	*
*	*	*lig	*	*	*
!	!	!	!	!LO:N:acc=#	!
1r	.	1G	.	2.Bn\	.
.	.	.	.	4B\	-ti-
=10-	=10-	=10-	=10-	=10-	=10-
1C	De-	1E	.	2c\	as
*	*	*	*	*	*Xij
!	!	!	!	!LO:SIC:v:t=custos A	!
.	.	.	.	2G/	.
*	*	*Xlig	*	*	*ij
!	!	!	!	!LO:LB:g=original	!
1AA	-o	1C	.	1.A	De-
=11-	=11-	=11-	=11-	=11-	=11-
*	*	*lig	*	*	*
4.FF/	gra-	1F	.	.	.
8GG/	.	.	.	.	.
4AA/	.	.	.	2A/	-o
4BB-/	.	.	.	.	.
2.C/	.	1E	.	2.G/	gra-
4C/	.	.	.	4G/	-ti-
*	*	*Xlig	*	*	*
=12-	=12-	=12-	=12-	=12-	=12-
*	*	*lig	*	*	*
2C/	.	1G	.	2G/	-as
*	*	*	*	*	*Xij
2G\	.	.	.	2r	.
2F\	.	1A	.	2c\	De-
2FF/	.	.	.	2c\	-o
*	*	*Xlig	*	*	*
=13-	=13-	=13-	=13-	=13-	=13-
1.C	-ti-	1G	.	2.c\	gra-
.	.	.	.	4G/	-ti-
.	.	1E	-ti-	2G/	-as
*	*	*	*	*	*ij
2C/	-as	.	.	2G/	De
=14-	=14-	=14-	=14-	=14-	=14-
*	*ij	*	*	*	*
2FF/	De-	0F	-as.	2A/	o
1BB-	-o	.	.	1d	gra-
2AA/	gra-	.	.	2c\	.
=15-	=15-	=15-	=15-	=15-	=15-
!	!	!LO:TX:a:t=Laus Deo.\nA m D G.	!	!	!
2BB-/	.	0F;;	.	1B-y	-ti-
4AA/	.	.	.	.	.
4GG/	-ti-	.	.	.	.
!	!	!	!	!LO:TX:b:t=A M D G.	!
!LO:N:vis=0.	!	!	!	!LO:N:vis=0.	!
1FF;;	-as	.	.	1A;;	-as
*	*Xij	*	*	*	*Xij
!LO:PB:g=original	!	!LO:PB:g=original	!	!LO:PB:g=original	!
=-	=-	=-	=-	=-	=-
*-	*-	*-	*-	*-	*-
!!!system-decoration: [(s1,s2,s3)]
!!!ENC: Marta Chmielewska
!!!END: 2021-07-06
!!!ENC: Tomasz Grochalski
!!!END: 2021-06-22
